X: 1
T: A Child is Born
M: 3/4
L: 1/4
K: Bb
|:"Bbmaj7"D3|"Ebm/Bb"EFB|"Bbmaj7"D3|"Ebm/Bb"EFB|
"Bbmaj9"D3|"Ebm/Bb"EFB|"Am7b5"d3|"D7#9"c3|
"Gm7"D3|"D+7"EFB|"Gm7"D3|"D+7"EFB|
"Gm7"D3|"C9"=EGc|"F7sus4"d3|"D7#9"[DF]2-[DF]/[CE]/||
"Bbmaj7"D3|"Ebm/Bb"EFB|"Bbmaj7"D3|"Ebm/Bb"EFB|
"Bbmaj9"D3|"D7#9"FBd|"Ebmaj7"f3|"Ab9"e2"Cm7b5"_G|
"Bb/F"F3|"Gb6(#11)"EFB|"Gm7"D3|"C9"=EGc|
"F7sus4"d3|"F7(13)"F3:|
